X:147
T: IM SOMMER IM SOMMER DA IST DIE SCHOENSTE ZEIT
N: K2248
O: Europa, Mitteleuropa, Deutschland, Moseltal
R: Kinder - Lied, Reigen, Tanz, Nachahmungs - Spiel
M: 2/4
L: 1/8
K: Bb
F | B2Bc | d2d
d | cBcd | B2z
F | B2Bc | d2d
d | cBcd | B2z
c | c2Ac | c2d
c | B2GG | A2z
F | B2Bc | d2d
d | cBcd | B2z

@@@ Tune index: 7484
